X: 1
T: Sher 3 ("Philadelphia")
O: Klez Camp 98
S: Marianne Cygnel
Z: 1998 by John Chambers <jc:trillian.mit.edu>
M: 2/4
L: 1/16
K: BPhr^d
"A"\
|:"B"B2c2 d4- | dcd2 c2B2 | d2e2 f4- | f2ef e2d2 \
| "B"B2c2 d4- | dcd2 c2B2 | "Am"^GABc dedc | "B"~c2B6 :|
"B"\
|:"Em"e4 "B"d3c | "Am"dec2 "B"B4 | d2e2 fgeg | f4 b4 \
| "Em"e4 "B"d3c | "Am"dec2 BcA2 | ^GABc dedc | "B"~c2B6 :|
"C"\
|:"Em"~e8 | g6 ^a2 | ^abag abag | gffe fgB2 \
| "Em"e6 g2 | b4 b4 | ^abag abag | gffe e2 :|
"D"\
|:"Am"a3^g a3g | a6 =g2 | "B"f3^e f3e | f6 =e2 \
| defg agfe | defe dcBA | "Am"^GABc dedc | "B"~c2B6 :|
"E"\
|:"B"BcAc B2B2 | BcAc B2B2 | B2c2 dedc | Bcd2- d4 \
| "B"BcAc B2B2 | BcAc B2B2 | "Am"^GABc dedc | "B"~c2B6 :|
"F"\
|:"Em"e6 B2 | e6 B2 | e3B e3B | e3B e3B \
| "Em"e2fg efg2 | e2fg efg2 | "(Am)"gaag gaag | gaag gfe2 |
| "Em"g2g2 fefg | e4 g2B2 | e2gf efg2 | e2gf efg2 \
| "(Am)"gaag gaag | gaag gfe2 | "Em"g2g2 "(B)"fefg | "Em"e6 :|
"G"\
|:"B"B2b2 B2b2 | B2 b6 | "Am"a3g a3g | "B"gff2- f4 \
| "Am"A2a2 A2a2 | A2 a6 | "B"g2f2 e2d2 | dgf2- f2B2 |
| "B"d2e2 f2g2 | a2g2 f2e2 | defe ~d3c | "Am"BABc ~B2A2 \
| "B"d2e2 f2g2 | a2g2 f2e2 | "B"defe "Am"~d3c | "B"~c2B6 :|
"H"\
|:"Em"b4 "B/F#"a4 | "Em"g4 "B"f4 | "Em"e3f gfge | "B"f4 z2(3fg^g \
| "Am"agaf "Em"gfge | "B"fegf "Em"e4 | "B"defe "Am"~d3c | "B"~c2B6 :|
"I"\
|:"Am"A4 B4 | c4 e4 | "B"defe ~d3c | BcBc ~B2A2 \
| "Am"A4 B4 | c4 e4 | "B"defe "Am"~d3c | "B"~c2B6 :|
